images/299.svg

<?xml version="1.0" encoding="UTF-8"?>
<svg xmlns="http://www.w3.org/2000/svg" xmlns:xlink="http://www.w3.org/1999/xlink" width="300pt" height="300pt" viewBox="0 0 300 300" version="1.1">
<defs>
<g>
<symbol overflow="visible" id="glyph0-0">
<path style="stroke:none;" d="M 0.796875 2.828125 L 0.796875 -11.28125 L 8.796875 -11.28125 L 8.796875 2.828125 Z M 1.703125 1.9375 L 7.90625 1.9375 L 7.90625 -10.390625 L 1.703125 -10.390625 Z M 1.703125 1.9375 "/>
</symbol>
<symbol overflow="visible" id="glyph0-1">
<path style="stroke:none;" d="M 6.3125 -10.59375 C 5.164062 -10.59375 4.253906 -10.164062 3.578125 -9.3125 C 2.898438 -8.457031 2.5625 -7.296875 2.5625 -5.828125 C 2.5625 -4.359375 2.898438 -3.195312 3.578125 -2.34375 C 4.253906 -1.488281 5.164062 -1.0625 6.3125 -1.0625 C 7.457031 -1.0625 8.363281 -1.488281 9.03125 -2.34375 C 9.695312 -3.195312 10.03125 -4.359375 10.03125 -5.828125 C 10.03125 -7.296875 9.695312 -8.457031 9.03125 -9.3125 C 8.363281 -10.164062 7.457031 -10.59375 6.3125 -10.59375 Z M 6.3125 -11.875 C 7.945312 -11.875 9.253906 -11.328125 10.234375 -10.234375 C 11.210938 -9.140625 11.703125 -7.671875 11.703125 -5.828125 C 11.703125 -3.984375 11.210938 -2.507812 10.234375 -1.40625 C 9.253906 -0.3125 7.945312 0.234375 6.3125 0.234375 C 4.664062 0.234375 3.351562 -0.3125 2.375 -1.40625 C 1.394531 -2.507812 0.90625 -3.984375 0.90625 -5.828125 C 0.90625 -7.671875 1.394531 -9.140625 2.375 -10.234375 C 3.351562 -11.328125 4.664062 -11.875 6.3125 -11.875 Z M 6.3125 -11.875 "/>
</symbol>
<symbol overflow="visible" id="glyph0-2">
<path style="stroke:none;" d="M 10.3125 -10.765625 L 10.3125 -9.109375 C 9.78125 -9.597656 9.210938 -9.960938 8.609375 -10.203125 C 8.003906 -10.453125 7.363281 -10.578125 6.6875 -10.578125 C 5.351562 -10.578125 4.332031 -10.171875 3.625 -9.359375 C 2.914062 -8.546875 2.5625 -7.367188 2.5625 -5.828125 C 2.5625 -4.285156 2.914062 -3.109375 3.625 -2.296875 C 4.332031 -1.484375 5.351562 -1.078125 6.6875 -1.078125 C 7.363281 -1.078125 8.003906 -1.195312 8.609375 -1.4375 C 9.210938 -1.6875 9.78125 -2.054688 10.3125 -2.546875 L 10.3125 -0.90625 C 9.757812 -0.53125 9.171875 -0.242188 8.546875 -0.046875 C 7.929688 0.140625 7.28125 0.234375 6.59375 0.234375 C 4.832031 0.234375 3.441406 -0.304688 2.421875 -1.390625 C 1.410156 -2.472656 0.90625 -3.953125 0.90625 -5.828125 C 0.90625 -7.703125 1.410156 -9.175781 2.421875 -10.25 C 3.441406 -11.332031 4.832031 -11.875 6.59375 -11.875 C 7.289062 -11.875 7.945312 -11.78125 8.5625 -11.59375 C 9.1875 -11.414062 9.769531 -11.140625 10.3125 -10.765625 Z M 10.3125 -10.765625 "/>
</symbol>
<symbol overflow="visible" id="glyph0-3">
<path style="stroke:none;" d="M 1.515625 -12.15625 L 2.953125 -12.15625 L 2.953125 0 L 1.515625 0 Z M 1.515625 -12.15625 "/>
</symbol>
</g>
</defs>
<g id="surface43689">
<rect x="0" y="0" width="300" height="300" style="fill:rgb(100%,100%,100%);fill-opacity:1;stroke:none;"/>
<path style="fill:none;stroke-width:1.2;stroke-linecap:butt;stroke-linejoin:miter;stroke:rgb(0%,0%,0%);stroke-opacity:1;stroke-miterlimit:10;" d="M 140.878906 190.949219 L 135.457031 209.289062 "/>
<path style="fill:none;stroke-width:1.2;stroke-linecap:butt;stroke-linejoin:miter;stroke:rgb(100%,0%,0%);stroke-opacity:1;stroke-miterlimit:10;" d="M 135.457031 209.289062 L 130.03125 227.625 "/>
<path style="fill:none;stroke-width:1.2;stroke-linecap:butt;stroke-linejoin:miter;stroke:rgb(0%,0%,0%);stroke-opacity:1;stroke-miterlimit:10;" d="M 149.511719 193.5 L 144.085938 211.839844 "/>
<path style="fill:none;stroke-width:1.2;stroke-linecap:butt;stroke-linejoin:miter;stroke:rgb(100%,0%,0%);stroke-opacity:1;stroke-miterlimit:10;" d="M 144.085938 211.839844 L 138.664062 230.179688 "/>
<path style="fill:none;stroke-width:1.2;stroke-linecap:butt;stroke-linejoin:miter;stroke:rgb(0%,0%,0%);stroke-opacity:1;stroke-miterlimit:10;" d="M 145.195312 192.222656 L 181.246094 179.441406 "/>
<path style="fill:none;stroke-width:1.2;stroke-linecap:butt;stroke-linejoin:miter;stroke:rgb(0%,0%,0%);stroke-opacity:1;stroke-miterlimit:10;" d="M 121.898438 161.886719 L 145.195312 192.222656 "/>
<path style=" stroke:none;fill-rule:nonzero;fill:rgb(100%,100%,100%);fill-opacity:1;" d="M 128.347656 219.402344 L 141.347656 219.402344 L 141.347656 238.402344 L 128.347656 238.402344 Z M 128.347656 219.402344 "/>
<g style="fill:rgb(100%,0%,0%);fill-opacity:1;">
  <use xlink:href="#glyph0-1" x="128.347656" y="234.253906"/>
</g>
<path style="fill:none;stroke-width:1.2;stroke-linecap:butt;stroke-linejoin:miter;stroke:rgb(0%,0%,0%);stroke-opacity:1;stroke-miterlimit:10;" d="M 181.246094 179.441406 L 180.230469 141.203125 "/>
<path style="fill:none;stroke-width:1.2;stroke-linecap:butt;stroke-linejoin:miter;stroke:rgb(0%,0%,0%);stroke-opacity:1;stroke-miterlimit:10;" d="M 181.246094 179.441406 L 184.738281 198.246094 "/>
<path style="fill:none;stroke-width:1.2;stroke-linecap:butt;stroke-linejoin:miter;stroke:rgb(0%,80%,0%);stroke-opacity:1;stroke-miterlimit:10;" d="M 184.738281 198.246094 L 188.230469 217.046875 "/>
<path style="fill:none;stroke-width:1.2;stroke-linecap:butt;stroke-linejoin:miter;stroke:rgb(0%,0%,0%);stroke-opacity:1;stroke-miterlimit:10;" d="M 219.484375 178.425781 L 181.246094 179.441406 "/>
<path style="fill:none;stroke-width:1.2;stroke-linecap:butt;stroke-linejoin:miter;stroke:rgb(0%,0%,0%);stroke-opacity:1;stroke-miterlimit:10;" d="M 180.230469 141.203125 L 143.550781 130.355469 "/>
<path style="fill:none;stroke-width:1.2;stroke-linecap:butt;stroke-linejoin:miter;stroke:rgb(0%,0%,0%);stroke-opacity:1;stroke-miterlimit:10;" d="M 180.230469 141.203125 L 179.074219 131.105469 "/>
<path style="fill:none;stroke-width:1.2;stroke-linecap:butt;stroke-linejoin:miter;stroke:rgb(0%,80%,0%);stroke-opacity:1;stroke-miterlimit:10;" d="M 179.074219 131.105469 L 177.921875 121.007812 "/>
<path style="fill:none;stroke-width:1.2;stroke-linecap:butt;stroke-linejoin:miter;stroke:rgb(0%,0%,0%);stroke-opacity:1;stroke-miterlimit:10;" d="M 218.46875 140.1875 L 180.230469 141.203125 "/>
<path style="fill:none;stroke-width:1.2;stroke-linecap:butt;stroke-linejoin:miter;stroke:rgb(0%,0%,0%);stroke-opacity:1;stroke-miterlimit:10;" d="M 143.550781 130.355469 L 121.898438 161.886719 "/>
<path style="fill:none;stroke-width:1.2;stroke-linecap:butt;stroke-linejoin:miter;stroke:rgb(0%,0%,0%);stroke-opacity:1;stroke-miterlimit:10;" d="M 143.550781 130.355469 L 150.957031 114.816406 "/>
<path style="fill:none;stroke-width:1.2;stroke-linecap:butt;stroke-linejoin:miter;stroke:rgb(0%,80%,0%);stroke-opacity:1;stroke-miterlimit:10;" d="M 150.957031 114.816406 L 158.359375 99.277344 "/>
<path style="fill:none;stroke-width:1.2;stroke-linecap:butt;stroke-linejoin:miter;stroke:rgb(0%,0%,0%);stroke-opacity:1;stroke-miterlimit:10;" d="M 112.019531 108.703125 L 143.550781 130.355469 "/>
<path style="fill:none;stroke-width:1.2;stroke-linecap:butt;stroke-linejoin:miter;stroke:rgb(0%,0%,0%);stroke-opacity:1;stroke-miterlimit:10;" d="M 121.898438 161.886719 L 90.367188 140.234375 "/>
<path style="fill:none;stroke-width:1.2;stroke-linecap:butt;stroke-linejoin:miter;stroke:rgb(0%,0%,0%);stroke-opacity:1;stroke-miterlimit:10;" d="M 121.898438 161.886719 L 108.738281 175.765625 "/>
<path style="fill:none;stroke-width:1.2;stroke-linecap:butt;stroke-linejoin:miter;stroke:rgb(0%,80%,0%);stroke-opacity:1;stroke-miterlimit:10;" d="M 108.738281 175.765625 L 95.582031 189.644531 "/>
<path style="fill:none;stroke-width:1.2;stroke-linecap:butt;stroke-linejoin:miter;stroke:rgb(0%,0%,0%);stroke-opacity:1;stroke-miterlimit:10;" d="M 90.367188 140.234375 L 219.484375 178.425781 "/>
<path style="fill:none;stroke-width:1.2;stroke-linecap:butt;stroke-linejoin:miter;stroke:rgb(0%,0%,0%);stroke-opacity:1;stroke-miterlimit:10;" d="M 90.367188 140.234375 L 71.5625 143.726562 "/>
<path style="fill:none;stroke-width:1.2;stroke-linecap:butt;stroke-linejoin:miter;stroke:rgb(0%,80%,0%);stroke-opacity:1;stroke-miterlimit:10;" d="M 71.5625 143.726562 L 52.761719 147.21875 "/>
<path style="fill:none;stroke-width:1.2;stroke-linecap:butt;stroke-linejoin:miter;stroke:rgb(0%,0%,0%);stroke-opacity:1;stroke-miterlimit:10;" d="M 112.019531 108.703125 L 90.367188 140.234375 "/>
<path style="fill:none;stroke-width:1.2;stroke-linecap:butt;stroke-linejoin:miter;stroke:rgb(0%,0%,0%);stroke-opacity:1;stroke-miterlimit:10;" d="M 219.484375 178.425781 L 218.46875 140.1875 "/>
<path style="fill:none;stroke-width:1.2;stroke-linecap:butt;stroke-linejoin:miter;stroke:rgb(0%,0%,0%);stroke-opacity:1;stroke-miterlimit:10;" d="M 219.484375 178.425781 L 233.363281 191.585938 "/>
<path style="fill:none;stroke-width:1.2;stroke-linecap:butt;stroke-linejoin:miter;stroke:rgb(0%,80%,0%);stroke-opacity:1;stroke-miterlimit:10;" d="M 233.363281 191.585938 L 247.238281 204.742188 "/>
<path style="fill:none;stroke-width:1.2;stroke-linecap:butt;stroke-linejoin:miter;stroke:rgb(0%,0%,0%);stroke-opacity:1;stroke-miterlimit:10;" d="M 218.46875 140.1875 L 195.167969 109.851562 "/>
<path style="fill:none;stroke-width:1.2;stroke-linecap:butt;stroke-linejoin:miter;stroke:rgb(0%,0%,0%);stroke-opacity:1;stroke-miterlimit:10;" d="M 218.46875 140.1875 L 231.625 126.3125 "/>
<path style="fill:none;stroke-width:1.2;stroke-linecap:butt;stroke-linejoin:miter;stroke:rgb(0%,80%,0%);stroke-opacity:1;stroke-miterlimit:10;" d="M 231.625 126.3125 L 244.785156 112.433594 "/>
<path style="fill:none;stroke-width:1.2;stroke-linecap:butt;stroke-linejoin:miter;stroke:rgb(0%,0%,0%);stroke-opacity:1;stroke-miterlimit:10;" d="M 195.167969 109.851562 L 112.019531 108.703125 "/>
<path style="fill:none;stroke-width:1.2;stroke-linecap:butt;stroke-linejoin:miter;stroke:rgb(0%,0%,0%);stroke-opacity:1;stroke-miterlimit:10;" d="M 195.167969 109.851562 L 211.472656 99.851562 "/>
<path style="fill:none;stroke-width:1.2;stroke-linecap:butt;stroke-linejoin:miter;stroke:rgb(0%,80%,0%);stroke-opacity:1;stroke-miterlimit:10;" d="M 211.472656 99.851562 L 227.773438 89.855469 "/>
<path style="fill:none;stroke-width:1.2;stroke-linecap:butt;stroke-linejoin:miter;stroke:rgb(0%,0%,0%);stroke-opacity:1;stroke-miterlimit:10;" d="M 195.167969 109.851562 L 186.929688 92.59375 "/>
<path style="fill:none;stroke-width:1.2;stroke-linecap:butt;stroke-linejoin:miter;stroke:rgb(0%,80%,0%);stroke-opacity:1;stroke-miterlimit:10;" d="M 186.929688 92.59375 L 178.6875 75.335938 "/>
<path style="fill:none;stroke-width:1.2;stroke-linecap:butt;stroke-linejoin:miter;stroke:rgb(0%,0%,0%);stroke-opacity:1;stroke-miterlimit:10;" d="M 112.019531 108.703125 L 108.527344 89.898438 "/>
<path style="fill:none;stroke-width:1.2;stroke-linecap:butt;stroke-linejoin:miter;stroke:rgb(0%,80%,0%);stroke-opacity:1;stroke-miterlimit:10;" d="M 108.527344 89.898438 L 105.035156 71.097656 "/>
<path style=" stroke:none;fill-rule:nonzero;fill:rgb(100%,100%,100%);fill-opacity:1;" d="M 97.035156 61.597656 L 113.035156 61.597656 L 113.035156 80.597656 L 97.035156 80.597656 Z M 97.035156 61.597656 "/>
<g style="fill:rgb(0%,80%,0%);fill-opacity:1;">
  <use xlink:href="#glyph0-2" x="97.035156" y="76.449219"/>
  <use xlink:href="#glyph0-3" x="108.207031" y="76.449219"/>
</g>
<path style=" stroke:none;fill-rule:nonzero;fill:rgb(100%,100%,100%);fill-opacity:1;" d="M 219.773438 80.355469 L 235.773438 80.355469 L 235.773438 99.355469 L 219.773438 99.355469 Z M 219.773438 80.355469 "/>
<g style="fill:rgb(0%,80%,0%);fill-opacity:1;">
  <use xlink:href="#glyph0-2" x="219.773438" y="95.207031"/>
  <use xlink:href="#glyph0-3" x="230.945312" y="95.207031"/>
</g>
<path style=" stroke:none;fill-rule:nonzero;fill:rgb(100%,100%,100%);fill-opacity:1;" d="M 162.6875 65.835938 L 178.6875 65.835938 L 178.6875 84.835938 L 162.6875 84.835938 Z M 162.6875 65.835938 "/>
<g style="fill:rgb(0%,80%,0%);fill-opacity:1;">
  <use xlink:href="#glyph0-2" x="162.6875" y="80.6875"/>
  <use xlink:href="#glyph0-3" x="173.859375" y="80.6875"/>
</g>
<path style=" stroke:none;fill-rule:nonzero;fill:rgb(100%,100%,100%);fill-opacity:1;" d="M 236.785156 102.933594 L 252.785156 102.933594 L 252.785156 121.933594 L 236.785156 121.933594 Z M 236.785156 102.933594 "/>
<g style="fill:rgb(0%,80%,0%);fill-opacity:1;">
  <use xlink:href="#glyph0-2" x="236.785156" y="117.785156"/>
  <use xlink:href="#glyph0-3" x="247.957031" y="117.785156"/>
</g>
<path style=" stroke:none;fill-rule:nonzero;fill:rgb(100%,100%,100%);fill-opacity:1;" d="M 239.238281 195.242188 L 255.238281 195.242188 L 255.238281 214.242188 L 239.238281 214.242188 Z M 239.238281 195.242188 "/>
<g style="fill:rgb(0%,80%,0%);fill-opacity:1;">
  <use xlink:href="#glyph0-2" x="239.238281" y="210.09375"/>
  <use xlink:href="#glyph0-3" x="250.410156" y="210.09375"/>
</g>
<path style=" stroke:none;fill-rule:nonzero;fill:rgb(100%,100%,100%);fill-opacity:1;" d="M 36.761719 137.71875 L 52.761719 137.71875 L 52.761719 156.71875 L 36.761719 156.71875 Z M 36.761719 137.71875 "/>
<g style="fill:rgb(0%,80%,0%);fill-opacity:1;">
  <use xlink:href="#glyph0-2" x="36.761719" y="152.570312"/>
  <use xlink:href="#glyph0-3" x="47.933594" y="152.570312"/>
</g>
<path style=" stroke:none;fill-rule:nonzero;fill:rgb(100%,100%,100%);fill-opacity:1;" d="M 79.582031 180.144531 L 95.582031 180.144531 L 95.582031 199.144531 L 79.582031 199.144531 Z M 79.582031 180.144531 "/>
<g style="fill:rgb(0%,80%,0%);fill-opacity:1;">
  <use xlink:href="#glyph0-2" x="79.582031" y="194.996094"/>
  <use xlink:href="#glyph0-3" x="90.753906" y="194.996094"/>
</g>
<path style=" stroke:none;fill-rule:nonzero;fill:rgb(100%,100%,100%);fill-opacity:1;" d="M 150.359375 89.777344 L 166.359375 89.777344 L 166.359375 108.777344 L 150.359375 108.777344 Z M 150.359375 89.777344 "/>
<g style="fill:rgb(0%,80%,0%);fill-opacity:1;">
  <use xlink:href="#glyph0-2" x="150.359375" y="104.628906"/>
  <use xlink:href="#glyph0-3" x="161.53125" y="104.628906"/>
</g>
<path style=" stroke:none;fill-rule:nonzero;fill:rgb(100%,100%,100%);fill-opacity:1;" d="M 169.921875 111.507812 L 185.921875 111.507812 L 185.921875 130.507812 L 169.921875 130.507812 Z M 169.921875 111.507812 "/>
<g style="fill:rgb(0%,80%,0%);fill-opacity:1;">
  <use xlink:href="#glyph0-2" x="169.921875" y="126.359375"/>
  <use xlink:href="#glyph0-3" x="181.09375" y="126.359375"/>
</g>
<path style=" stroke:none;fill-rule:nonzero;fill:rgb(100%,100%,100%);fill-opacity:1;" d="M 180.230469 207.546875 L 196.230469 207.546875 L 196.230469 226.546875 L 180.230469 226.546875 Z M 180.230469 207.546875 "/>
<g style="fill:rgb(0%,80%,0%);fill-opacity:1;">
  <use xlink:href="#glyph0-2" x="180.230469" y="222.398438"/>
  <use xlink:href="#glyph0-3" x="191.402344" y="222.398438"/>
</g>
</g>
</svg>

<svg xmlns="http://www.w3.org/2000/svg" xmlns:xlink="http://www.w3.org/1999/xlink" width="300pt" height="300pt" viewBox="0 0 300 300"><defs><symbol overflow="visible"><path d="M.797 2.828v-14.11h8V2.83zm.906-.89h6.203v-12.33H1.703zm0 0"/></symbol><symbol overflow="visible" id="a"><path d="M6.313-10.594c-1.15 0-2.06.43-2.735 1.28-.68.857-1.015 2.017-1.015 3.486 0 1.47.335 2.633 1.015 3.484.676.856 1.586 1.28 2.735 1.28 1.144.002 2.05-.424 2.718-1.28.665-.85 1-2.015 1-3.484 0-1.47-.335-2.63-1-3.484-.667-.852-1.573-1.282-2.717-1.282zm0-1.28c1.632 0 2.94.546 3.92 1.64.978 1.093 1.47 2.562 1.47 4.406 0 1.844-.492 3.32-1.47 4.422-.98 1.093-2.288 1.64-3.92 1.64-1.65 0-2.96-.546-3.938-1.64-.98-1.102-1.47-2.578-1.47-4.422 0-1.844.49-3.313 1.47-4.406.977-1.094 2.29-1.64 3.938-1.64zm0 0"/></symbol><symbol overflow="visible" id="b"><path d="M10.313-10.766v1.657c-.532-.488-1.102-.85-1.704-1.093-.606-.25-1.247-.375-1.922-.375-1.336 0-2.356.406-3.063 1.22-.71.81-1.063 1.99-1.063 3.53 0 1.543.352 2.72 1.063 3.53.707.814 1.727 1.22 3.063 1.22.675 0 1.316-.117 1.92-.36.603-.25 1.173-.617 1.704-1.11v1.642c-.554.375-1.14.664-1.765.86-.617.187-1.266.28-1.953.28-1.762 0-3.153-.54-4.172-1.625C1.41-2.474.906-3.954.906-5.83c0-1.875.504-3.348 1.516-4.422 1.02-1.082 2.41-1.625 4.172-1.625.695 0 1.35.094 1.968.28.626.18 1.208.454 1.75.83zm0 0"/></symbol><symbol overflow="visible" id="c"><path d="M1.516-12.156h1.437V0H1.516zm0 0"/></symbol></defs><g><path fill="#fff" d="M0 0h300v300H0z"/><path d="M140.88 190.95l-5.423 18.34" stroke-width="1.2" stroke="#000" stroke-miterlimit="10" fill="none"/><path d="M135.457 209.29l-5.426 18.335" stroke-width="1.2" stroke="#f00" stroke-miterlimit="10" fill="none"/><path d="M149.512 193.5l-5.426 18.34" stroke-width="1.2" stroke="#000" stroke-miterlimit="10" fill="none"/><path d="M144.086 211.84l-5.422 18.34" stroke-width="1.2" stroke="#f00" stroke-miterlimit="10" fill="none"/><path d="M145.195 192.223l36.05-12.782M121.898 161.887l23.297 30.336" stroke-width="1.2" stroke="#000" stroke-miterlimit="10" fill="none"/><path d="M128.348 219.402h13v19h-13zm0 0" fill="#fff"/><use xlink:href="#a" x="128.348" y="234.254" fill="#f00"/><path d="M181.246 179.44l-1.016-38.237M181.246 179.44l3.492 18.806" stroke-width="1.2" stroke="#000" stroke-miterlimit="10" fill="none"/><path d="M184.738 198.246l3.492 18.8" stroke-width="1.2" stroke="#0c0" stroke-miterlimit="10" fill="none"/><path d="M219.484 178.426l-38.238 1.015M180.23 141.203l-36.68-10.848M180.23 141.203l-1.156-10.098" stroke-width="1.2" stroke="#000" stroke-miterlimit="10" fill="none"/><path d="M179.074 131.105l-1.152-10.097" stroke-width="1.2" stroke="#0c0" stroke-miterlimit="10" fill="none"/><path d="M218.47 140.188l-38.24 1.015M143.55 130.355L121.9 161.887M143.55 130.355l7.407-15.54" stroke-width="1.2" stroke="#000" stroke-miterlimit="10" fill="none"/><path d="M150.957 114.816l7.402-15.54" stroke-width="1.2" stroke="#0c0" stroke-miterlimit="10" fill="none"/><path d="M112.02 108.703l31.53 21.652M121.898 161.887l-31.53-21.653M121.898 161.887l-13.16 13.88" stroke-width="1.2" stroke="#000" stroke-miterlimit="10" fill="none"/><path d="M108.738 175.766l-13.156 13.88" stroke-width="1.2" stroke="#0c0" stroke-miterlimit="10" fill="none"/><path d="M90.367 140.234l129.117 38.192M90.367 140.234l-18.805 3.493" stroke-width="1.2" stroke="#000" stroke-miterlimit="10" fill="none"/><path d="M71.563 143.727l-18.8 3.492" stroke-width="1.2" stroke="#0c0" stroke-miterlimit="10" fill="none"/><path d="M112.02 108.703l-21.653 31.53M219.484 178.426l-1.015-38.238M219.484 178.426l13.88 13.16" stroke-width="1.2" stroke="#000" stroke-miterlimit="10" fill="none"/><path d="M233.363 191.586l13.875 13.156" stroke-width="1.2" stroke="#0c0" stroke-miterlimit="10" fill="none"/><path d="M218.47 140.188l-23.302-30.336M218.47 140.188l13.155-13.875" stroke-width="1.2" stroke="#000" stroke-miterlimit="10" fill="none"/><path d="M231.625 126.313l13.16-13.88" stroke-width="1.2" stroke="#0c0" stroke-miterlimit="10" fill="none"/><path d="M195.168 109.852l-83.148-1.15M195.168 109.852l16.305-10" stroke-width="1.2" stroke="#000" stroke-miterlimit="10" fill="none"/><path d="M211.473 99.852l16.3-9.997" stroke-width="1.2" stroke="#0c0" stroke-miterlimit="10" fill="none"/><path d="M195.168 109.852l-8.238-17.258" stroke-width="1.2" stroke="#000" stroke-miterlimit="10" fill="none"/><path d="M186.93 92.594l-8.243-17.258" stroke-width="1.2" stroke="#0c0" stroke-miterlimit="10" fill="none"/><path d="M112.02 108.703l-3.493-18.805" stroke-width="1.2" stroke="#000" stroke-miterlimit="10" fill="none"/><path d="M108.527 89.898l-3.492-18.8" stroke-width="1.2" stroke="#0c0" stroke-miterlimit="10" fill="none"/><path d="M97.035 61.598h16v19h-16zm0 0" fill="#fff"/><g fill="#0c0"><use xlink:href="#b" x="97.035" y="76.449"/><use xlink:href="#c" x="108.207" y="76.449"/></g><path d="M219.773 80.355h16v19h-16zm0 0" fill="#fff"/><g fill="#0c0"><use xlink:href="#b" x="219.773" y="95.207"/><use xlink:href="#c" x="230.945" y="95.207"/></g><path d="M162.688 65.836h16v19h-16zm0 0" fill="#fff"/><g fill="#0c0"><use xlink:href="#b" x="162.688" y="80.688"/><use xlink:href="#c" x="173.859" y="80.688"/></g><path d="M236.785 102.934h16v19h-16zm0 0" fill="#fff"/><g fill="#0c0"><use xlink:href="#b" x="236.785" y="117.785"/><use xlink:href="#c" x="247.957" y="117.785"/></g><path d="M239.238 195.242h16v19h-16zm0 0" fill="#fff"/><g fill="#0c0"><use xlink:href="#b" x="239.238" y="210.094"/><use xlink:href="#c" x="250.41" y="210.094"/></g><path d="M36.762 137.72h16v19h-16zm0 0" fill="#fff"/><g fill="#0c0"><use xlink:href="#b" x="36.762" y="152.57"/><use xlink:href="#c" x="47.934" y="152.57"/></g><path d="M79.582 180.145h16v19h-16zm0 0" fill="#fff"/><g fill="#0c0"><use xlink:href="#b" x="79.582" y="194.996"/><use xlink:href="#c" x="90.754" y="194.996"/></g><path d="M150.36 89.777h16v19h-16zm0 0" fill="#fff"/><g fill="#0c0"><use xlink:href="#b" x="150.359" y="104.629"/><use xlink:href="#c" x="161.531" y="104.629"/></g><path d="M169.922 111.508h16v19h-16zm0 0" fill="#fff"/><g fill="#0c0"><use xlink:href="#b" x="169.922" y="126.359"/><use xlink:href="#c" x="181.094" y="126.359"/></g><path d="M180.23 207.547h16v19h-16zm0 0" fill="#fff"/><g fill="#0c0"><use xlink:href="#b" x="180.23" y="222.398"/><use xlink:href="#c" x="191.402" y="222.398"/></g></g></svg>
